!!!COM: Palestrina, Giovanni Perluigi da
!!!OPR: Missa Ecce sacerdos magnus
!!!OMD: Credo
!!!OTL: Et iterum
**kern	**kern	**kern	**kern
*Ibass	*Itenor	*Icalto	*Icant
!Bassus	!Tenor	!Altus	!Cantus
*clefF4	*clefGv2	*clefG2	*clefG2
*k[]	*k[]	*k[]	*k[]
*G:mix	*G:mix	*G:mix	*G:mix
*M4/2	*M4/2	*M4/2	*M4/2
=162	=162	=162	=162
0r	0r	1g	1r
.	.	2g	1dd
.	.	2g	.
=163	=163	=163	=163
0r	0r	2f	2dd
.	.	2d	2dd
.	.	2e	2cc
.	.	2f#	2a
=164	=164	=164	=164
0r	0r	1.g	2.b
.	.	.	4cc
.	.	.	[1dd
.	.	4f	.
.	.	4e	.
=165	=165	=165	=165
0r	0r	4f	2dd]
.	.	4g	.
.	.	1a	4cc
.	.	.	4b
.	.	.	2cc
.	.	[2g	2b
=166	=166	=166	=166
1r	0d	2g]	1a
.	.	2f#	.
1G	.	2g	[1b
.	.	4G	.
.	.	4A	.
=167	=167	=167	=167
2G	0d	4B	2b]
.	.	4c	.
2G	.	4d	4a
.	.	4e	4g
2F	.	1f	1a
2D	.	.	.
=168	=168	=168	=168
2.E	0B	2e	[0g
.	.	2e	.
4F	.	.	.
[1G	.	1d	.
=169	=169	=169	=169
2G]	0d	2r	1g]
4F	.	2G	.
4E	.	.	.
2F	.	2A	1r
2G	.	2B	.
=170	=170	=170	=170
1C	[0e	1c	2r
.	.	.	2g
1r	.	2A	2a
.	.	2G	2b
=171	=171	=171	=171
0r	0e]	4A	1cc
.	.	4B	.
.	.	4c	.
.	.	4d	.
.	.	4e	2b
.	.	4f#	.
.	.	[2g	2g
=172	=172	=172	=172
1r	[0d	2g]	1a
.	.	2f#	.
1G	.	1g	4g
.	.	.	4a
.	.	.	4b
.	.	.	4cc
=173	=173	=173	=173
2F	0d]	2r	1dd
2G	.	2g	.
2.B-	.	2f	1r
.	.	2g	.
4A	.	.	.
=174	=174	=174	=174
2G	0d	2b-	0r
2F#	.	2.a	.
1G	.	.	.
.	.	4g	.
.	.	[2g	.
=175	=175	=175	=175
1D	0r	4g]	1dd
.	.	4f	.
.	.	4f	.
.	.	8e	.
.	.	8d	.
2A	.	2e	2cc
2B-	.	[2d	2dd
=176	=176	=176	=176
[0A	0r	2d]	2ff
.	.	2c	2.ee
.	.	1f	.
.	.	.	4dd
.	.	.	[2dd
=177	=177	=177	=177
1A]	0r	1e	2dd]
.	.	.	2cc#
2r	.	2d	1dd
[2G	.	[2B	.
=178	=178	=178	=178
2G]	[0d	2B]	1r
2F#	.	2A	.
1G	.	1B	2r
.	.	.	[2g
=179	=179	=179	=179
1D	0d]	1A	2g]
.	.	.	2f#
2r	.	1G	4g
.	.	.	4a
2G	.	.	4b
.	.	.	4cc
=180	=180	=180	=180
2.B	0d	2r	1dd
.	.	1g	.
4c	.	.	.
1d	.	.	2a
.	.	2f#	2a
=181	=181	=181	=181
0G	0B	1g	2.b
.	.	.	4cc
.	.	2d	1dd
.	.	2d	.
=182	=182	=182	=182
0r	0c	2.e	1g
.	.	4f	.
.	.	2g	2r
.	.	2e	[2cc
=183	=183	=183	=183
2r	[0d	2f#	2cc]
1G	.	2g	2b
.	.	1a	2.dd
2F#	.	.	.
.	.	.	4cc
=184	=184	=184	=184
2G	0d]	1r	2b
2G	.	.	2b
2D	.	2r	1a
[2F	.	[2a	.
=185	=185	=185	=185
2F]	[0c	2a]	2.cc
2E	.	2g	.
.	.	.	4b
2F	.	2f	2a
2F	.	2f	2a
=186	=186	=186	=186
2.C	1c]	1e	2g
.	.	.	1cc
4D	.	.	.
4E	[1G	1r	.
4F	.	.	.
2G	.	.	2b
=187	=187	=187	=187
1C	0G]	2r	1ee
.	.	1c	.
1r	.	.	2ee
.	.	2B	[2dd
=188	=188	=188	=188
1r	0G	2e	4dd]
.	.	.	4cc
.	.	2e	1cc
1G	.	1d	.
.	.	.	2b
=189	=189	=189	=189
1A	0r	1c	2.cc
.	.	.	4dd
1c	.	2r	1ee
.	.	2c	.
=190	=190	=190	=190
2B	0r	1d	1dd
2.d	.	.	.
.	.	1f	1r
4d	.	.	.
2d	.	.	.
=191	=191	=191	=191
2c	0r	2e	0r
2B	.	2.g	.
2.c	.	.	.
.	.	4g	.
.	.	2g	.
4B	.	.	.
=192	=192	=192	=192
2A	0r	2f	2r
2G	.	2e	2g
2.F	.	2d	1a
.	.	[2c	.
4G	.	.	.
=193	=193	=193	=193
1A	0r	4c]	1cc
.	.	4d	.
.	.	2.e	.
1G	.	.	2b
.	.	4d	.
.	.	4B	[2dd
.	.	4c	.
=194	=194	=194	=194
0r	0r	4d	4dd]
.	.	4e	4dd
.	.	4f	2dd
.	.	4d	.
.	.	4e	2cc
.	.	4f	.
.	.	2g	2b
=195	=195	=195	=195
2r	0r	2f	2a
2C	.	2e	1cc
1G	.	1d	.
.	.	.	2b
=196	=196	=196	=196
1A	[0c	2r	1cc
.	.	2c	.
2E	.	1g	1r
2C	.	.	.
=197	=197	=197	=197
2F	0c]	1a	2r
2F	.	.	2cc
1C	.	2e	1ee
.	.	2g	.
=198	=198	=198	=198
2.F	0c	2.a	1ff
4G	.	4g	.
4A	.	2.e	2cc
4B	.	.	.
[2c	.	.	[2ee
.	.	4f	.
=199	=199	=199	=199
4c]	0c	2g	2ee]
4B	.	.	.
4A	.	1a	1ff
4G	.	.	.
2F	.	.	.
2E	.	2g	[2ee
=200	=200	=200	=200
2D	0A	2f	2ee]
2D	.	2f	2dd
1A	.	2e	[1ee
.	.	[2a	.
=201	=201	=201	=201
2r	[0c	2a]	1ee]
1A	.	2a	.
.	.	2f	1r
2A	.	2e	.
=202	=202	=202	=202
2F	0c]	2a	0r
2E	.	1g	.
1A	.	.	.
.	.	2f#	.
=203	=203	=203	=203
0G	0B	1g	2r
.	.	.	2dd
.	.	2r	2dd
.	.	2g	2dd
=204	=204	=204	=204
2r	0r	2g	2b
2c	.	2g	2g
2c	.	1e	2.cc
2c	.	.	.
.	.	.	4dd
=205	=205	=205	=205
2A	0r	2c	4ee
.	.	.	4cc
2F	.	2.f	2.dd
1A	.	.	.
.	.	4e	4cc
.	.	2c	[2cc
=206	=206	=206	=206
1G	0r	1d	2cc]
.	.	.	2b
2r	.	2.A	1cc
[2F	.	.	.
.	.	4B	.
=207	=207	=207	=207
2F]	0A	2c	2r
2D	.	2d	1ff
2F	.	1c	.
2F	.	.	2cc
=208	=208	=208	=208
2.E	[0G	2r	2ee
.	.	1g	2ee
4F	.	.	.
2G	.	.	2dd
[2C	.	2e	[2ee
=209	=209	=209	=209
2C]	1G]	2g	2ee]
2E	.	2g	2b
2.D	[1A	2.f	1dd
4E	.	4g	.
=210	=210	=210	=210
4F	0A]	2a	2.cc
4G	.	.	.
2A	.	2e	.
.	.	.	4b
2F	.	2f	4a
.	.	.	4g
[2c	.	4e	[2a
.	.	4d	.
=211	=211	=211	=211
4c]	0c	1e	4a]
4B	.	.	4g
4A	.	.	1g
4G	.	.	.
2A	.	1c	.
2A	.	.	2f#
=212	=212	=212	=212
0G	0B	1d	0g
.	.	2r	.
.	.	2d	.
=213	=213	=213	=213
1D	0A	2f	2r
.	.	2f	2a
1r	.	2.e	2cc
.	.	.	2cc
.	.	4f	.
=214	=214	=214	=214
0r	0G	1g	2.b
.	.	.	4cc
.	.	2d	1dd
.	.	2g	.
=215	=215	=215	=215
0r	0r	2f	2a
.	.	4e	2dd
.	.	4d	.
.	.	2e	2cc
.	.	2e	4b
.	.	.	4a
=216	=216	=216	=216
1r	0r	2d	2b
.	.	2g	2b
1d	.	2f	[1a
.	.	2d	.
=217	=217	=217	=217
2c	0r	2e	1a]
2A	.	2e	.
2B	.	2.d	2r
2B	.	.	2dd
.	.	4e	.
=218	=218	=218	=218
1A	0r	2f	2cc
.	.	2.e	2a
1G	.	.	2b
.	.	4d	.
.	.	2B	2b
=219	=219	=219	=219
2F	0r	2c	1a
4E	.	1d	.
4D	.	.	.
2E	.	.	1g
2E	.	2c#	.
=220	=220	=220	=220
2D	0r	1d	2f
1d	.	.	4e
.	.	.	4d
.	.	1A	2e
2c	.	.	2e
=221	=221	=221	=221
2.B-	0d	2r	2d
.	.	2.d	2f
4A	.	.	.
2G	.	.	2g
.	.	4c	.
2F	.	2A	[2a
=222	=222	=222	=222
1G	0d	2B-	4a]
.	.	.	4g
.	.	4A	1g
.	.	4G	.
1D	.	2A	.
.	.	2A	2f#
=223	=223	=223	=223
0G	0B	2G	1g
.	.	2d	.
.	.	2d	2r
.	.	2d	2dd
=224	=224	=224	=224
2r	0d	2.B	2dd
2G	.	.	2dd
.	.	4A	.
2G	.	1G	2.b
2G	.	.	.
.	.	.	4a
=225	=225	=225	=225
2.E	0e	2r	1g
.	.	2g	.
4D	.	.	.
1C	.	2g	2r
.	.	2g	2cc
=226	=226	=226	=226
0G	0d	1g	2b-
.	.	.	2g
.	.	2r	2.b-
.	.	2g	.
.	.	.	8a
.	.	.	8g
=227	=227	=227	=227
2r	0d	2f	2a
2G	.	2d	2b-
2F	.	1f	1a
2D	.	.	.
=228	=228	=228	=228
2.F	0r	1c	2r
.	.	.	1a
4G	.	.	.
4A	.	2r	.
4B	.	.	.
[2c	.	[2e	2g
=229	=229	=229	=229
2c]	0r	2e]	2a
2B	.	2d	2b
1A	.	2e	1cc
.	.	2f#	.
=230	=230	=230	=230
1G	0d	1g	2b
.	.	.	1dd
1r	.	2f#	.
.	.	[2a	2cc
=231	=231	=231	=231
0D	0d	4a]	2b
.	.	4g	.
.	.	1g	4a
.	.	.	4g
.	.	.	1a
.	.	2f	.
=232	=232	=232	=232
1E	0B	1e	1g
1G	.	2.d	2r
.	.	.	2g
.	.	4e	.
=233	=233	=233	=233
2.F	0c	1f	1a
4G	.	.	.
1A	.	2.e	[1cc
.	.	4f	.
=234	=234	=234	=234
0G	0d	1g	2cc]
.	.	.	4b
.	.	.	4a
.	.	1G	1b
=235	=235	=235	=235
0r	0c	1A	2.cc
.	.	.	4dd
.	.	[1c	1ee
=236	=236	=236	=236
0r	0G	2c]	0dd
.	.	4B	.
.	.	4A	.
.	.	1B	.
=237	=237	=237	=237
1.C	1G	2c	2r
.	.	1g	1ee
.	[1c	.	.
2C	.	2g	2ee
=238	=238	=238	=238
2C	1c]	2g	2ee
2C	.	2g	2ee
1F	1c	1a	1ff
=239	=239	=239	=239
1C	0c	1g	1ee
[1F	.	[1a	[1cc
=240	=240	=240	=240
1F]	0A	1a]	1cc]
1D	.	1f	1dd
=241	=241	=241	=241
0A	0c	1e	1ee
.	.	[1a	1ee
=242	=242	=242	=242
0E	0B	2a]	2r
.	.	4g	2b
.	.	4f#	.
.	.	1g#	1ee
=243	=243	=243	=243
1r	0A	1a	2cc
.	.	.	2a
1D	.	2r	1dd
.	.	[2d	.
=244	=244	=244	=244
1G	0G	2d]	1b
.	.	1g	.
2E	.	.	1r
2C	.	2e	.
=245	=245	=245	=245
2.F	0A	2c	1cc
.	.	1f	.
4E	.	.	.
1D	.	.	1ff
.	.	2d	.
=246	=246	=246	=246
0C	0c	2.e	2ee
.	.	.	2cc
.	.	4f	.
.	.	[1g	1ee
=247	=247	=247	=247
1.G	0B	2g]	2.dd
.	.	2g	.
.	.	.	4cc
.	.	[1d	2b
2G	.	.	[2g
=248	=248	=248	=248
0D	0A	1d]	2g]
.	.	.	4f#
.	.	.	4e
.	.	2r	2f#
.	.	[2d	2f#
=249	=249	=249	=249
1G	[0G	4d]	0g
.	.	4c	.
.	.	4d	.
.	.	4B	.
1C	.	4c	.
.	.	4d	.
.	.	[2e	.
=250	=250	=250	=250
2.G	0G]	4e]	2r
.	.	4d	.
.	.	1d	2.gg
4F	.	.	.
1E	.	.	.
.	.	.	4ff
.	.	2c#	4gg
.	.	.	4ee
=251	=251	=251	=251
2D	0r	1d	2ff
2.d	.	.	2.dd
.	.	[1a	.
4c	.	.	4ee
4d	.	.	4ff
4B	.	.	4dd
=252	=252	=252	=252
2c	0r	1a]	2ee
2.A	.	.	2cc
.	.	1a	1ee
4B	.	.	.
4c	.	.	.
4A	.	.	.
=253	=253	=253	=253
2B	0r	2r	2.dd
2.G	.	2.g	.
.	.	.	4cc
.	.	.	1b
4A	.	4f	.
4B	.	4g	.
4c	.	4e	.
=254	=254	=254	=254
1d	0r	2f	2a
.	.	2.d	2.dd
1D	.	.	.
.	.	4e	4cc
.	.	4f	4dd
.	.	4d	4b
=255	=255	=255	=255
0r	0A	2e	2cc
.	.	2.c	2.a
.	.	4d	4b
.	.	4e	4cc
.	.	4f	4a
=256	=256	=256	=256
2r	0G	1g	2b
2.G	.	.	2g
.	.	2r	1b
4F	.	.	.
4G	.	[2d	.
4E	.	.	.
=257	=257	=257	=257
2F	0A	4d]	2.a
.	.	4c	.
2.D	.	4d	.
.	.	4e	4g
.	.	4f	1f
4E	.	4g	.
4F	.	2a	.
4D	.	.	.
=258	=258	=258	=258
2E	0c	0g	2e
2C	.	.	2.ee
1C	.	.	.
.	.	.	4dd
.	.	.	4ee
.	.	.	4cc
=259	=259	=259	=259
0G	0B	2r	2dd
.	.	2.g	2.b
.	.	4f	4cc
.	.	4d	4dd
.	.	4e	4b
=260	=260	=260	=260
1A	[0A	4c	4cc
.	.	4d	4b
.	.	4e	4a
.	.	4c	4g
2.D	.	4d	4f
.	.	4e	4g
.	.	[2f	[2a
4E	.	.	.
=261	=261	=261	=261
2F	0A]	2f]	2a]
2C	.	2e	1g
1D	.	1d	.
.	.	.	2f#
=262	=262	=262	=262
[0G	[0G	[0d	[0g
=263	=263	=263	=263
0G]	0G]	0d]	0g]
==	==	==	==
*-	*-	*-	*-
!!!CDT: 1525/^1526/-1594/2/2
!!!OCY: Italia
!!!AGN: Mass (Tenor)
!!!AST: renaissance, vocal
!!!ASW: Antiphon
!!!PWK: Masses, Book I
!!!RNB: Cadence finals: D,C
!!!YOR: Le Opere Complete, v. 1, p. 1
!!!YOO: Rome, Italy: Fratelli Scalera
!!!END: 1992//
!!!EED: John Miller
!!!YEC: Copyright 2000, John Miller
!!!YEN: United States of America
!!!YEM: Rights to all derivative electronic formats reserved.
!!!YEM: Refer to licensing agreement for further details.
!!!YEM: This file must be accompanied by the licensing agreement.
!!!YEM: A copy of the licensing agreement may be found at http://www.music-cog.ohio-state.edu/HumdrumDatabases/Palestrina/license.txt
!!!EMD: converted to Humdrum by Bret Aarden
